src/assets/danger.svg

<svg fill="none" viewBox="0 0 16 16" xmlns="http://www.w3.org/2000/svg"><path d="m14.6666 8.00001c0 3.68189-2.9847 6.66669-6.66662 6.66669-3.6819 0-6.66667-2.9848-6.66667-6.66669 0-3.6819 2.98477-6.66667 6.66667-6.66667 3.68192 0 6.66662 2.98477 6.66662 6.66667z" fill="#ff3545"/><g clip-rule="evenodd" fill="#fff" fill-rule="evenodd"><path d="m8.0004 4.42709c.33137 0 .6.29766.6.66485v4.00365c0 .36718-.26863.66484-.6.66484s-.6-.29766-.6-.66484v-4.00365c0-.36719.26863-.66485.6-.66485z"/><path d="m8.0004 10.3581c.33137 0 .6.2686.6.6v.0153c0 .3314-.26863.6-.6.6s-.6-.2686-.6-.6v-.0153c0-.3314.26863-.6.6-.6z"/></g></svg>

<svg xmlns="http://www.w3.org/2000/svg" fill="none" viewBox="0 0 16 16">
    <path fill="#FF3545" d="M14.6666 8.00001C14.6666 11.6819 11.6819 14.6667 7.99998 14.6667C4.31808 14.6667 1.33331 11.6819 1.33331 8.00001C1.33331 4.31811 4.31808 1.33334 7.99998 1.33334C11.6819 1.33334 14.6666 4.31811 14.6666 8.00001Z"/>
    <path fill="white" fill-rule="evenodd" d="M8.0004 4.42709C8.33177 4.42709 8.6004 4.72475 8.6004 5.09194L8.6004 9.09559C8.6004 9.46277 8.33177 9.76043 8.0004 9.76043C7.66903 9.76043 7.4004 9.46277 7.4004 9.09559L7.4004 5.09194C7.4004 4.72475 7.66903 4.42709 8.0004 4.42709Z" clip-rule="evenodd"/>
    <path fill="white" fill-rule="evenodd" d="M8.0004 10.3581C8.33177 10.3581 8.6004 10.6267 8.6004 10.9581L8.6004 10.9734C8.6004 11.3048 8.33177 11.5734 8.0004 11.5734C7.66903 11.5734 7.4004 11.3048 7.4004 10.9734L7.4004 10.9581C7.4004 10.6267 7.66903 10.3581 8.0004 10.3581Z" clip-rule="evenodd"/>
</svg>
